images/agreement-img.svg

<svg width="53" height="51" viewBox="0 0 53 51" fill="none" xmlns="http://www.w3.org/2000/svg">
<path d="M50.5208 21.3818L41.9382 29.7883L37.0401 24.982L40.7419 21.3818C41.0365 21.0447 41.0166 20.5426 40.6962 20.2287C40.3762 19.9153 39.8636 19.8958 39.5194 20.1843L35.8091 23.7763L33.3641 21.3731L41.9382 12.9665C42.2743 12.6352 42.2743 12.1004 41.9382 11.7691C41.6 11.4399 41.0539 11.4399 40.7157 11.7691L31.5176 20.7789C31.3534 20.9381 31.2611 21.1554 31.2611 21.3818C31.2611 21.6082 31.3534 21.825 31.5176 21.9847L32.7486 23.1817L31.5176 24.3878C30.0623 22.9611 27.7832 22.7339 26.0646 23.8443L25.3885 23.1817C24.5762 22.3881 23.4756 21.9424 22.328 21.942C21.7858 21.942 21.2477 22.0398 20.7415 22.2309L19.259 20.7789L19.8745 20.1843C20.0388 20.0247 20.1311 19.8079 20.1311 19.5815C20.1311 19.3551 20.0388 19.1378 19.8745 18.9786L11.2661 10.5721C10.9262 10.2412 10.3768 10.2433 10.0394 10.5762C9.70159 10.9092 9.70371 11.4469 10.0436 11.7778L18.0107 19.5815L17.3952 20.1756L13.0605 24.3791L10.0004 21.3731C9.83747 21.2122 9.61608 21.1218 9.38495 21.1218C9.15383 21.1218 8.93202 21.2122 8.76947 21.3731C8.43294 21.7044 8.43294 22.2392 8.76947 22.5705L11.838 25.5766L10.607 26.7736L9.45395 28.022L1.48687 20.1843C1.32432 20.0235 1.10251 19.9331 0.871384 19.9331C0.640258 19.9331 0.418868 20.0235 0.255895 20.1843C-0.0802119 20.5156 -0.0802119 21.0505 0.255895 21.3818L8.83846 29.7883C9.00228 29.9471 9.22367 30.0359 9.45395 30.0346C9.68466 30.0359 9.90605 29.9471 10.0699 29.7883L11.2661 28.5909L12.4882 29.7883C10.7963 31.4464 10.7963 34.1336 12.4882 35.7917L14.1184 37.3627C14.2809 37.5236 14.5027 37.614 14.7339 37.614C14.965 37.614 15.1864 37.5236 15.3494 37.3627C15.6855 37.0315 15.6855 36.4966 15.3494 36.1653L13.7455 34.5947C13.2557 34.1166 12.9805 33.4673 12.9805 32.7902C12.9805 32.1127 13.2557 31.4634 13.7455 30.9858L14.3525 30.3912L20.49 24.3791C21.5203 23.4218 23.1357 23.4218 24.166 24.3791L29.6796 29.7796C29.9742 30.1167 29.9543 30.6188 29.6343 30.9327C29.3139 31.2462 28.8012 31.2657 28.4575 30.9771L24.4606 27.0626C24.1186 26.7296 23.5653 26.7313 23.2254 27.0667C22.8855 27.4022 22.8872 27.9437 23.2297 28.2766L27.2261 32.1915C27.9694 32.925 29.0912 33.1464 30.0661 32.7517C31.0414 32.357 31.6764 31.4245 31.6738 30.3912C31.673 29.7158 31.3987 29.0681 30.9106 28.5909L27.3391 25.0923C28.3348 24.6503 29.5048 24.8452 30.2951 25.5849L37.6556 32.7944C38.1403 33.2729 38.4116 33.9205 38.4099 34.5947C38.4116 35.2689 38.1403 35.9161 37.6556 36.3946L35.2021 38.7978L32.6881 41.2519L30.9106 43.0013L26.004 47.8072C25.6658 48.1364 25.1197 48.1364 24.7815 47.8072C24.4454 47.4763 24.4454 46.9415 24.7815 46.6102L30.3387 41.1922C30.5859 40.9849 30.6939 40.659 30.6177 40.3489C30.5415 40.0387 30.2943 39.7966 29.9776 39.722C29.6606 39.6473 29.3283 39.7527 29.1162 39.9952L23.5937 45.3957C23.25 45.6843 22.7374 45.6648 22.4169 45.3514C22.0969 45.0375 22.077 44.5354 22.3716 44.1983L27.8852 38.7978C28.0495 38.6386 28.1417 38.4213 28.1417 38.1949C28.1417 37.9685 28.0495 37.7517 27.8852 37.592C27.547 37.2628 27.0009 37.2628 26.6627 37.592L21.1402 43.0013C20.8024 43.3305 20.2564 43.3305 19.9181 43.0013C19.7539 42.8416 19.6616 42.6248 19.6616 42.3984C19.6616 42.172 19.7539 41.9547 19.9181 41.7955L25.4317 36.3946C25.596 36.2354 25.6882 36.0181 25.6882 35.7917C25.6882 35.5653 25.596 35.3485 25.4317 35.1889C25.0935 34.8596 24.5474 34.8596 24.2092 35.1889L18.6871 40.5981C18.3472 40.9285 17.7978 40.9269 17.4604 40.5939C17.1226 40.261 17.1247 39.7228 17.4646 39.3923L24.1313 32.8707C24.4712 32.5377 24.4712 31.9979 24.1313 31.6649C23.7914 31.332 23.2402 31.332 22.9003 31.6649L16.1989 38.2119C15.1847 39.2066 15.1847 40.8178 16.1989 41.8125C16.6468 42.2603 17.25 42.5273 17.8892 42.5597C17.9667 43.8525 19.0224 44.8828 20.3427 44.9541C20.4159 46.2507 21.4729 47.2856 22.7962 47.3573C22.8212 47.9958 23.0904 48.6024 23.5505 49.0556C24.332 49.8194 25.5206 50.0172 26.5154 49.5482L27.2261 50.2531C27.9563 50.9687 29.0502 51.1935 30.0128 50.8253C30.9749 50.4571 31.6234 49.566 31.6649 48.5548C32.3181 48.5353 32.9391 48.2707 33.3988 47.8159C33.8492 47.3731 34.1176 46.7839 34.1531 46.1599C35.4768 46.0886 36.5334 45.0532 36.6066 43.7567C37.6391 43.7165 38.5488 43.0809 38.9247 42.1384C39.301 41.1956 39.0715 40.1246 38.3405 39.4093L37.725 38.8148L38.956 37.609C39.7662 36.8134 40.2212 35.7353 40.2217 34.6113C40.2014 33.7708 39.9266 32.9553 39.4326 32.2678L40.7419 30.9858L41.3574 31.5887C41.6956 31.9179 42.2417 31.9179 42.5799 31.5887L51.7517 22.5788C52.0878 22.2479 52.0878 21.7127 51.7517 21.3818C51.5892 21.2209 51.3674 21.1305 51.1362 21.1305C50.9051 21.1305 50.6837 21.2209 50.5208 21.3818ZM12.5145 27.3852L18.0369 21.9847L19.259 23.1817L13.7455 28.5909L12.5145 27.3852ZM29.6796 49.0046C29.3414 49.3339 28.7953 49.3339 28.4575 49.0046L27.842 48.4018L29.073 47.2043L29.6796 47.7989C29.8439 47.9581 29.9361 48.1754 29.9361 48.4018C29.9361 48.6282 29.8439 48.8454 29.6796 49.0046ZM32.1331 46.6015C31.7949 46.9307 31.2488 46.9307 30.9106 46.6015L30.3387 45.9986L30.9542 45.3957L31.5608 44.8012L32.1767 45.3957C32.3405 45.5554 32.4328 45.7722 32.4328 45.9986C32.4328 46.225 32.3405 46.4422 32.1767 46.6015H32.1331ZM34.5866 44.1983C34.2484 44.5275 33.7023 44.5275 33.3641 44.1983L32.7486 43.5954L33.9711 42.3984L34.5866 43.0013C34.9227 43.3325 34.9227 43.8674 34.5866 44.1983ZM37.0401 41.7955C36.8771 41.956 36.6557 42.0464 36.4246 42.0464C36.1935 42.0464 35.9717 41.956 35.8091 41.7955L35.2021 41.1922L36.4072 39.9952L37.0227 40.5981C37.3635 40.9244 37.3715 41.4597 37.0401 41.7955ZM38.2622 30.9858L32.7486 25.5849L33.9711 24.3878L39.4936 29.7883L38.2622 30.9858Z" fill="#FFBB01"/>
<path d="M16.4642 13.5865H35.5323C36.0109 13.5865 36.399 13.2063 36.399 12.7373V0.849155C36.399 0.380213 36.0109 0 35.5323 0H16.4642C15.9856 0 15.5975 0.380213 15.5975 0.849155V12.7373C15.5975 13.2063 15.9856 13.5865 16.4642 13.5865ZM17.331 10.1899C18.2883 10.1899 19.0644 10.9503 19.0644 11.8882H17.331V10.1899ZM34.6655 11.8882H32.9321C32.9321 10.9503 33.7082 10.1899 34.6655 10.1899V11.8882ZM34.6655 3.39662C33.7082 3.39662 32.9321 2.6362 32.9321 1.69831H34.6655V3.39662ZM34.6655 5.09493V8.49155C32.7505 8.49155 31.1986 10.0124 31.1986 11.8882H20.7979C20.7979 10.0124 19.2456 8.49155 17.331 8.49155V5.09493C19.2456 5.09493 20.7979 3.57408 20.7979 1.69831H31.1986C31.1986 3.57408 32.7505 5.09493 34.6655 5.09493ZM17.331 1.69831H19.0644C19.0644 2.6362 18.2883 3.39662 17.331 3.39662V1.69831Z" fill="#FFBB01"/>
<path d="M25.9975 10.1897C27.9119 10.1897 29.464 8.66888 29.464 6.79311C29.464 4.91733 27.9119 3.39648 25.9975 3.39648C24.0828 3.39648 22.5311 4.91733 22.5311 6.79311C22.5311 8.66888 24.0828 10.1897 25.9975 10.1897ZM25.9975 5.0948C26.9547 5.0948 27.7308 5.85522 27.7308 6.79311C27.7308 7.73099 26.9547 8.49142 25.9975 8.49142C25.0404 8.49142 24.2643 7.73099 24.2643 6.79311C24.2643 5.85522 25.0404 5.0948 25.9975 5.0948Z" fill="#FFBB01"/>
<path d="M32.9316 6.79325C32.9316 7.26219 32.5436 7.6424 32.065 7.6424C31.5864 7.6424 31.1984 7.26219 31.1984 6.79325C31.1984 6.3243 31.5864 5.94409 32.065 5.94409C32.5436 5.94409 32.9316 6.3243 32.9316 6.79325Z" fill="#FFBB01"/>
<path d="M20.7975 6.79325C20.7975 7.26219 20.4094 7.6424 19.9309 7.6424C19.4523 7.6424 19.0642 7.26219 19.0642 6.79325C19.0642 6.3243 19.4523 5.94409 19.9309 5.94409C20.4094 5.94409 20.7975 6.3243 20.7975 6.79325Z" fill="#FFBB01"/>
<path d="M51.8528 5.47718L48.3858 0.382244C48.2246 0.14715 47.955 0.0065918 47.6664 0.0065918C47.3778 0.0065918 47.1077 0.14715 46.9469 0.382244L43.48 5.47718C43.3852 5.61525 43.334 5.77778 43.3327 5.94405V9.34067C43.3327 9.80961 43.7208 10.1898 44.1995 10.1898C44.6781 10.1898 45.0662 9.80961 45.0662 9.34067V6.19863L47.6664 2.37743L50.2666 6.19863V15.2848C50.2666 15.7537 50.6547 16.1339 51.1333 16.1339C51.612 16.1339 52 15.7537 52 15.2848V5.94405C51.9988 5.77778 51.9476 5.61525 51.8528 5.47718Z" fill="#FFBB01"/>
<path d="M48.533 11.8882V6.79325C48.533 6.3243 48.1449 5.94409 47.6663 5.94409C47.1877 5.94409 46.7997 6.3243 46.7997 6.79325V11.8882C46.7997 12.3571 47.1877 12.7373 47.6663 12.7373C48.1449 12.7373 48.533 12.3571 48.533 11.8882Z" fill="#FFBB01"/>
<path d="M0.862807 7.64238H1.72954V17.8322C1.72954 18.3012 2.11762 18.6814 2.59626 18.6814C3.07491 18.6814 3.46299 18.3012 3.46299 17.8322V6.79322C3.46299 6.32428 3.07491 5.94407 2.59626 5.94407H2.54421L5.19645 2.30987L7.84869 5.94407H7.79664C7.31799 5.94407 6.92991 6.32428 6.92991 6.79322V8.49153C6.92991 8.96048 7.31799 9.34069 7.79664 9.34069C8.27529 9.34069 8.66337 8.96048 8.66337 8.49153V7.64238H9.5301C9.85385 7.64072 10.1497 7.46285 10.2974 7.18049C10.4451 6.89854 10.4197 6.55896 10.2322 6.30065L5.89855 0.35656C5.7352 0.135978 5.4745 0.00537109 5.19645 0.00537109C4.9184 0.00537109 4.65729 0.135978 4.49435 0.35656L0.160705 6.30065C-0.0271988 6.55896 -0.0521681 6.89854 0.0955314 7.18049C0.243231 7.46285 0.539053 7.64072 0.862807 7.64238Z" fill="#FFBB01"/>
<path d="M5.19577 11.8882V14.4357C5.19577 14.9046 5.5838 15.2848 6.06239 15.2848C6.54098 15.2848 6.92901 14.9046 6.92901 14.4357V11.8882C6.92901 11.4193 6.54098 11.0391 6.06239 11.0391C5.5838 11.0391 5.19577 11.4193 5.19577 11.8882Z" fill="#FFBB01"/>
</svg>

<svg width="53" height="51" fill="none" xmlns="http://www.w3.org/2000/svg"><path d="M50.52 21.382l-8.582 8.406-4.898-4.806 3.702-3.6a.837.837 0 00-.046-1.153.88.88 0 00-1.177-.045l-3.71 3.592-2.445-2.403 8.574-8.407a.837.837 0 000-1.197.88.88 0 00-1.222 0l-9.198 9.01a.84.84 0 000 1.206l1.23 1.197-1.23 1.206a4.403 4.403 0 00-5.453-.544l-.677-.662a4.382 4.382 0 00-3.06-1.24c-.542 0-1.08.098-1.587.289l-1.482-1.452.616-.595a.84.84 0 000-1.205l-8.609-8.407a.88.88 0 00-1.227.004.837.837 0 00.005 1.202l7.967 7.803-.616.595-4.335 4.203L10 21.373a.876.876 0 00-1.23 0 .836.836 0 000 1.197l3.068 3.007-1.231 1.197-1.153 1.248-7.967-7.838a.876.876 0 00-1.231 0 .837.837 0 000 1.198l8.582 8.406a.878.878 0 00.616.247.878.878 0 00.616-.247l1.196-1.197 1.222 1.197a4.185 4.185 0 000 6.004l1.63 1.57a.876.876 0 001.231 0 .837.837 0 000-1.197l-1.604-1.57a2.521 2.521 0 01-.764-1.805c0-.677.275-1.327.764-1.804l.607-.595 6.138-6.012a2.712 2.712 0 013.676 0l5.514 5.4a.837.837 0 01-.046 1.154.88.88 0 01-1.177.044l-3.996-3.914a.886.886 0 00-1.236.004.843.843 0 00.005 1.21l3.996 3.914a2.641 2.641 0 002.84.56 2.547 2.547 0 001.608-2.36c-.001-.675-.275-1.323-.763-1.8l-3.572-3.499a2.72 2.72 0 012.956.493l7.36 7.21a2.52 2.52 0 01.755 1.8 2.52 2.52 0 01-.754 1.8l-2.454 2.403-2.514 2.454-1.777 1.75-4.907 4.805a.88.88 0 01-1.223 0 .837.837 0 010-1.197l5.558-5.418a.839.839 0 00.279-.843.858.858 0 00-.64-.627.877.877 0 00-.862.273l-5.522 5.4a.88.88 0 01-1.177-.044.837.837 0 01-.045-1.153l5.513-5.4a.84.84 0 000-1.206.88.88 0 00-1.222 0l-5.523 5.41a.88.88 0 01-1.222 0 .84.84 0 010-1.207l5.514-5.4a.84.84 0 000-1.206.88.88 0 00-1.223 0l-5.522 5.41a.88.88 0 01-1.227-.005.837.837 0 01.005-1.202l6.666-6.521a.84.84 0 000-1.206.884.884 0 00-1.23 0l-6.702 6.547a2.51 2.51 0 000 3.6 2.575 2.575 0 001.69.748c.078 1.292 1.133 2.323 2.454 2.394.073 1.297 1.13 2.332 2.453 2.403.025.639.294 1.245.755 1.699.781.763 1.97.961 2.964.492l.711.705c.73.716 1.824.94 2.787.572a2.551 2.551 0 001.652-2.27 2.575 2.575 0 001.734-.74c.45-.442.719-1.031.754-1.655 1.324-.071 2.38-1.107 2.454-2.403a2.597 2.597 0 002.318-1.619 2.509 2.509 0 00-.584-2.729l-.616-.594 1.231-1.206a4.204 4.204 0 001.266-2.998 4.188 4.188 0 00-.79-2.343l1.31-1.282.615.603a.88.88 0 001.223 0l9.172-9.01a.837.837 0 000-1.197.875.875 0 00-1.231 0zm-38.006 6.003l5.523-5.4 1.222 1.197-5.514 5.409-1.23-1.206zm17.166 21.62a.88.88 0 01-1.223 0l-.615-.603 1.231-1.198.607.595a.84.84 0 010 1.206zm2.453-2.404a.88.88 0 01-1.222 0L30.339 46l.615-.603.607-.595.616.595a.841.841 0 010 1.206h-.044zm2.454-2.403a.88.88 0 01-1.223 0l-.615-.603 1.222-1.197.616.603a.837.837 0 010 1.197zm2.453-2.403a.877.877 0 01-1.23 0l-.608-.603 1.205-1.197.616.603c.34.326.348.862.017 1.197zm1.222-10.81l-5.513-5.4 1.222-1.197 5.523 5.4-1.232 1.198z" fill="#FFBB01"/><path d="M16.464 13.586h19.068c.479 0 .867-.38.867-.849V.85A.858.858 0 0035.532 0H16.464a.858.858 0 00-.866.85v11.887c0 .47.388.85.866.85zm.867-3.396c.957 0 1.733.76 1.733 1.698h-1.733V10.19zm17.335 1.698h-1.734c0-.938.776-1.698 1.733-1.698v1.698zm0-8.491c-.958 0-1.734-.76-1.734-1.699h1.733v1.699zm0 1.698v3.397c-1.915 0-3.467 1.52-3.467 3.396H20.798c0-1.876-1.552-3.396-3.467-3.396V5.095c1.915 0 3.467-1.52 3.467-3.397h10.4c0 1.876 1.553 3.397 3.468 3.397zM17.33 1.698h1.733c0 .938-.776 1.699-1.733 1.699V1.698z" fill="#FFBB01"/><path d="M25.997 10.19c1.915 0 3.467-1.521 3.467-3.397s-1.552-3.397-3.466-3.397c-1.915 0-3.467 1.521-3.467 3.397s1.552 3.397 3.466 3.397zm0-5.095c.958 0 1.734.76 1.734 1.698s-.776 1.698-1.734 1.698c-.957 0-1.733-.76-1.733-1.698s.776-1.698 1.733-1.698zM32.932 6.793c0 .47-.388.85-.867.85a.858.858 0 01-.867-.85c0-.469.388-.849.867-.849s.867.38.867.85zM20.797 6.793c0 .47-.388.85-.866.85a.858.858 0 01-.867-.85c0-.469.388-.849.867-.849.478 0 .866.38.866.85zM51.853 5.477L48.386.382a.871.871 0 00-.72-.375.87.87 0 00-.72.375L43.48 5.477a.836.836 0 00-.147.467v3.397c0 .469.388.849.867.849.478 0 .866-.38.866-.85V6.2l2.6-3.822 2.6 3.822v9.086c0 .469.389.849.867.849.479 0 .867-.38.867-.85v-9.34a.836.836 0 00-.147-.467z" fill="#FFBB01"/><path d="M48.533 11.888V6.793a.858.858 0 00-.867-.849.858.858 0 00-.866.85v5.094c0 .47.388.85.866.85.479 0 .867-.38.867-.85zM.863 7.642h.867v10.19c0 .47.388.85.866.85.479 0 .867-.38.867-.85V6.793a.858.858 0 00-.867-.849h-.052L5.196 2.31 7.85 5.944h-.052a.858.858 0 00-.867.85v1.698c0 .468.388.849.867.849.478 0 .866-.38.866-.85v-.849h.867a.87.87 0 00.767-.462.835.835 0 00-.065-.88L5.9.358a.873.873 0 00-.703-.352c-.278 0-.539.131-.702.352L.161 6.3a.834.834 0 00-.065.88.87.87 0 00.767.461z" fill="#FFBB01"/><path d="M5.196 11.888v2.548c0 .469.388.849.866.849.479 0 .867-.38.867-.85v-2.547a.858.858 0 00-.867-.849.858.858 0 00-.866.85z" fill="#FFBB01"/></svg>
